packages/ui-icons/svg/Solid/courses.svg

<svg viewBox="0 0 1920 1920" version="1.1" xmlns="http://www.w3.org/2000/svg">
    <path d="M1750.17647,0 L1750.17647,1468.23529 L1524.29412,1468.23529 L1524.29412,1807.05882 L1693.70588,1807.05882 L1693.70588,1920 L451.352941,1920 C368.905882,1920 289.847059,1883.85882 235.635294,1820.61176 C192.717647,1769.78824 169,1704.28235 169,1637.64706 L169,1637.64706 L169,282.352941 C169,126.494118 295.494118,0 451.352941,0 L451.352941,0 L1750.17647,0 Z M1411.35294,1468.23529 L463.776471,1468.23529 C374.552941,1468.23529 297.752941,1529.22353 284.2,1608.28235 C283.070588,1617.31765 281.941176,1626.35294 281.941176,1634.25882 L281.941176,1634.25882 L281.941176,1637.64706 C281.941176,1678.30588 295.494118,1716.70588 322.6,1747.2 C354.223529,1785.6 401.658824,1807.05882 451.352941,1807.05882 L451.352941,1807.05882 L1411.35294,1807.05882 L1411.35294,1694.11765 L408.435294,1694.11765 L408.435294,1581.17647 L1411.35294,1581.17647 L1411.35294,1468.23529 Z M1354.88235,903.529412 L564.294118,903.529412 L564.294118,1016.47059 L1354.88235,1016.47059 L1354.88235,903.529412 Z M1411.35294,338.823529 L507.823529,338.823529 L507.823529,790.588235 L1411.35294,790.588235 L1411.35294,338.823529 Z M620.764706,677.647059 L1298.41176,677.647059 L1298.41176,451.764706 L620.764706,451.764706 L620.764706,677.647059 Z" stroke="none" stroke-width="1" fill-rule="evenodd"/>
</svg>

<svg viewBox="0 0 1920 1920" xmlns="http://www.w3.org/2000/svg">
    <path d="M1750.176 0v1468.235h-225.882v338.824h169.412V1920H451.353c-82.447 0-161.506-36.141-215.718-99.388-42.917-50.824-66.635-116.33-66.635-182.965V282.353C169 126.494 295.494 0 451.353 0h1298.823Zm-338.823 1468.235H463.776c-89.223 0-166.023 60.989-179.576 140.047-1.13 9.036-2.259 18.07-2.259 25.977v3.388c0 40.659 13.553 79.059 40.659 109.553 31.624 38.4 79.059 59.859 128.753 59.859h960v-112.941H408.435v-112.942h1002.918v-112.94Zm-56.47-564.706h-790.59v112.942h790.588V903.529Zm56.47-564.705h-903.53v451.764h903.53V338.824ZM620.765 677.647h677.647V451.765H620.765v225.882Z" fill-rule="evenodd"/>
</svg>
